images/ontwerp.svg

<svg height="60" viewBox="0 0 60 60" width="60" xmlns="http://www.w3.org/2000/svg"><g fill="none" fill-rule="evenodd"><path d="m0 0h60v60h-60z" fill="#000"/><path d="m5.02714019 17.680972 8.25689721-9.65383181 3.405757 2.91319621-2.2241495 2.6018692 1.6302056 1.3951402 2.2250467-2.6018692 3.7996262 3.2496449-1.403215 1.6400748 1.6311028 1.3951401 1.403215-1.6400747 3.7987289 3.2487476-2.2241495 2.6018692 1.6311028 1.3951402 2.2250467-2.600972 3.798729 3.2487477-1.4032149 1.640972 1.632 1.3951401 1.4032149-1.6409719 3.798729 3.2487476-2.2250467 2.6018692 1.6311028 1.3951402 2.2250467-2.600972 3.7996262 3.2487477-1.403215 1.640972 1.6311028 1.3951401 1.403215-1.6409719 3.7987289 3.2496448-2.2250467 2.600972 1.632 1.3951402 2.2250467-2.600972 3.3375701 2.8539813-8.2568972 9.6538318zm19.90609341 20.6543551s-.2915887-.7150654-.8622056-1.5422804l1.2946542 1.1071402zm28.082243-29.49084112c.0825421-.06011215.1758505-.08792523.2781309-.08164486.0816448.00358879.2000747.03229907.2978691.14265421.1480374.16418691.146243.41719626-.0035887.57958878l-16.2114393 16.32269159-2.7759252-2.3739813zm4.2536075 33.97592522-11.0471776 12.9169346-18.573757-15.8848598-1.1663551 1.1744299-.0035888-.0035888.0026916.0197383c-2.5758505 1.1430281-6.5432523 3.0056075-6.5432523 3.0056075l-4.9767477-5.5554393s2.2923364-3.7341308 3.7170841-6.1565607l-.0008972-.0017944.0942056-.0744673-16.7712897-14.3434766 11.0471776-12.9169346 19.2690841 16.4797009 18.857271-15.00919623c.676486-.52127103 1.4884486-.75274766 2.2842617-.70878504.8810467.04844859 1.7414579.43424299 2.3721869 1.13764486 1.2004486 1.34041121 1.1645608 3.37973831-.082542 4.67618691l-16.0849346 16.187215zm-50.91104298 1.4487028 7.82714018-3.7161869 3.6210841 4.0418692-4.5505794 7.3749532s-5.20373834 1.0542056-8.53143927 2.9463926l-.75723365-.8586169 4.05891589-3.6372336c.35618692-.3194019.80657944-.5087103 1.28299066-.5428037.26467289-.0170468.52396261-.11843.73659817-.31043.5096074-.4566729.5526729-1.2381308.096-1.7486355-.45487855-.5096074-1.23902808-.5526729-1.74773836-.096-.21353271.1911028-.34272897.438729-.39028037.6980187-.08433645.4692337-.32209346.8971963-.67828038 1.215701l-4.05891589 3.6372336-.75813084-.8451589c2.27170094-3.1348037 3.84986916-8.1591028 3.84986916-8.1591028z" fill="#fff"/></g></svg>

<?xml version="1.0" encoding="UTF-8"?>
<svg width="60px" height="60px" viewBox="0 0 60 60" version="1.1" xmlns="http://www.w3.org/2000/svg" xmlns:xlink="http://www.w3.org/1999/xlink">
    <!-- Generator: Sketch 54.1 (76490) - https://sketchapp.com -->
    <title>ontwerp</title>
    <desc>Created with Sketch.</desc>
    <g id="ontwerp" stroke="none" stroke-width="1" fill="none" fill-rule="evenodd">
        <rect fill="#000000" x="0" y="0" width="60" height="60"></rect>
        <path d="M5.02714019,17.680972 L13.2840374,8.02714019 L16.6897944,10.9403364 L14.4656449,13.5422056 L16.0958505,14.9373458 L18.3208972,12.3354766 L22.1205234,15.5851215 L20.7173084,17.2251963 L22.3484112,18.6203364 L23.7516262,16.9802617 L27.5503551,20.2290093 L25.3262056,22.8308785 L26.9573084,24.2260187 L29.1823551,21.6250467 L32.9810841,24.8737944 L31.5778692,26.5147664 L33.2098692,27.9099065 L34.6130841,26.2689346 L38.4118131,29.5176822 L36.1867664,32.1195514 L37.8178692,33.5146916 L40.0429159,30.9137196 L43.8425421,34.1624673 L42.4393271,35.8034393 L44.0704299,37.1985794 L45.4736449,35.5576075 L49.2723738,38.8072523 L47.0473271,41.4082243 L48.6793271,42.8033645 L50.9043738,40.2023925 L54.2419439,43.0563738 L45.9850467,52.7102056 L5.02714019,17.680972 Z M24.9332336,38.3353271 C24.9332336,38.3353271 24.6416449,37.6202617 24.071028,36.7930467 L25.3656822,37.9001869 L24.9332336,38.3353271 Z M53.0154766,8.84448598 C53.0980187,8.78437383 53.1913271,8.75656075 53.2936075,8.76284112 C53.3752523,8.76642991 53.4936822,8.79514019 53.5914766,8.90549533 C53.739514,9.06968224 53.7377196,9.32269159 53.5878879,9.48508411 L37.3764486,25.8077757 L34.6005234,23.4337944 L53.0154766,8.84448598 Z M57.2690841,42.8204112 L46.2219065,55.7373458 L27.6481495,39.852486 L26.4817944,41.0269159 L26.4782056,41.0233271 L26.4808972,41.0430654 C23.9050467,42.1860935 19.9376449,44.0486729 19.9376449,44.0486729 L14.9608972,38.4932336 C14.9608972,38.4932336 17.2532336,34.7591028 18.6779813,32.3366729 L18.6770841,32.3348785 L18.7712897,32.2604112 L2,17.9169346 L13.0471776,5 L32.3162617,21.4797009 L51.1735327,6.47050467 C51.8500187,5.94923364 52.6619813,5.71775701 53.4577944,5.76171963 C54.3388411,5.81016822 55.1992523,6.19596262 55.8299813,6.89936449 C57.0304299,8.2397757 56.9945421,10.2791028 55.7474393,11.5755514 L39.6625047,27.7627664 L57.2690841,42.8204112 Z M6.35804112,44.269114 L14.1851813,40.5529271 L17.8062654,44.5947963 L13.255686,51.9697495 C13.255686,51.9697495 8.05194766,53.0239551 4.72424673,54.9161421 L3.96701308,54.0575252 L8.02592897,50.4202916 C8.38211589,50.1008897 8.83250841,49.9115813 9.30891963,49.8774879 C9.57359252,49.8604411 9.83288224,49.7590579 10.0455178,49.5670579 C10.5551252,49.110385 10.5981907,48.3289271 10.1415178,47.8184224 C9.68663925,47.308815 8.90248972,47.2657495 8.39377944,47.7224224 C8.18024673,47.9135252 8.05105047,48.1611514 8.00349907,48.4204411 C7.91916262,48.8896748 7.68140561,49.3176374 7.32521869,49.6361421 L3.2663028,53.2733757 L2.50817196,52.4282168 C4.7798729,49.2934131 6.35804112,44.269114 6.35804112,44.269114 Z" fill="#FFFFFF"></path>
    </g>
</svg>
